X:1
T:Title
%%score ( 1 2 ) ( 3 4 )
L:1/8
M:3/4
K:C
V:1 treble nm="Grand Piano, Unnamed-000"
V:2 treble 
V:3 bass nm="Choir Pad, St. Petersburg"
V:4 bass 
V:1
 [EG]2 [CE]4 | [DF]2 [EG]4 | [Gc]2 [Fd]2 [Ec]2 | [DB]2 [Ec]4 | z2 A2 z2 | [FA]2 [EG]4 | z2 G2 z2 | %7
w: By~Attr.~to~Dimitri~Stepanovich~Bortniansky,~1825 *|||||||
 [CE]2 [B,D]4 | [EG]2 [CE]4 | [DF]2 [EG]4 | [Gc]2 [Fd]2 [Ec]2 | [DB]2 [Ec]4 | z2 A2 z2 | %13
w: ||||||
 [FA]2 [EG]4 | z2 G2 z2 | [CE]2 [B,D]4 | G2 [FB]4 | [FG]2 [Ec]4 | [EG]2 [Ge]2 [Fd]2 | %19
w: ||||||
 [Ec]2 [Ec]2 [DB]2 | [FB]2 [Ec]2 [GB]2 | [FA]2 [EG]4 | [DF]2 [CE]4 | [B,D]2 C4 |] %24
w: |||||
V:2
 x6 | x6 | x6 | x6 | [EG]2 F2- [Fc]2 | x6 | [CE]2 D2- [DF]2 | x6 | x6 | x6 | x6 | x6 | %12
 [EG]2 F2- [Fc]2 | x6 | [CE]2 D2- [DF]2 | x6 | x6 | x6 | x6 | x6 | x6 | x6 | x6 | x6 |] %24
V:3
 [C,G,]2 G,2 C2 | [C,C]2 [C,C]4 | [E,C]2 [F,A,]2 G,2 | [G,,G,]2 [C,G,]4 | [C,C]2 C2 A,2 | %5
 [F,C]2 [C,C]4 | [C,G,]2 [B,,G,]4 | [C,G,]2 [G,,G,]4 | z2 G,2 z2 | [C,C]2 [C,C]4 | %10
 [E,C]2 [F,A,]2 G,2 | [G,,G,]2 [C,G,]4 | [C,C]2 C2 A,2 | [F,C]2 [C,C]4 | [C,G,]2 [B,,G,]4 | %15
 [C,G,]2 [G,,G,]4 | G,2 [G,D]4 | [G,D]2 [G,C]4 | [G,C]2 G,2 B,2 | [G,C]2 G,4 | [G,D]2 [C,C]4 | %21
 [C,C]2 C2 G,2 | [F,A,]2 G,4 | [G,,F,]2 [C,E,]4 |] %24
V:4
 z2 C,4 | x6 | x6 | x6 | z2 F,4 | x6 | x6 | x6 | [C,G,]2 C,2- [C,C]2 | x6 | x6 | x6 | z2 F,4 | x6 | %14
 x6 | x6 | x6 | x6 | x6 | x6 | x6 | z2 C,4 | x6 | x6 |] %24

